X: 143
T: Home, Sweet Home
C: music: Sir Henry R. Bishop.
C: words: John Howard Payne.
%R: air, _
B: "The Everyday Song Book", 1927
F: http://www.library.pitt.edu/happybirthday/pdf/The_Everyday_Song_Book.pdf
Z: 2017 John Chambers <jc:trillian.mit.edu>
N: In bar 2 there's an odd "ghostly" [B4G4] chord after the first [B3G3] chord; ignored.
M: 4/4
L: 1/8
K: Eb
% - - - - - - - - - - - - - - - - - - - - - - - - - - - - -
[EE][FD] | ([G3E3] [AF]) [A2F2] [B2G2] | [B3G3] [GE] ([G2E2] [B2G2]) | ([A3F3] [GE]) [A2F2] [F2D2] | [G4E4] z2 ([EE][FD]) | ([G3E3] [AF])
w: 1.~'Mid* pleas-*sures and pal-a-ces* tho'*we may roam,   Be it ev-*
w: 2.~I* gaze* on the moon* as I tread* the drear wild,     And* feel*
w: 3.~As* ex-*ile from home,* splen-dor daz-*zles in vain; Oh,* give*
%
[A2F2][B2G2] | [B4G4] [G2E2] [B2G2] | ([A3F3] [GE]) [A2F2] [F2D2] | [E4E4] z2 ([BG] [BG]) | ([e3G3] [dB]) [c2A2] [B2G2] | [B4G4] [G2E2] [B2G2] |
w: er so hum-ble, there's no* place like home; A* charm* from the skies seems to
w: that my moth-er now thinks* of her child;   As she looks* on that moon from our
w: me my low-ly thatched cot-*tage a-gain;     The* birds* sing-ing gai-ly, that
%
([A3F3] [GE]) [A2F2] [F2D2] | [G4E4] z2 [B-G-] [BG] | ([e3G3] [dB]) [c2A2] [B2G2] | [B4G4] [G2E2] [B2G2] |  ([A3F3] [GE]) [A2F2] [F2D2] | [E6E6] z2 |]
w: hal-*low us there,  Which,* seek* thro' the world, is ne'er met* with else where.
w: own* cot-tage door, Thro' the wood-*bine whose fra-grance shall cheer* me  no more.
w: came* at my call;    Give me them* and that peace of mind, dear-*er than all.
%
"Refrain."\
[B8G8] | ([A4F4] [F4D4]) | [E8C8] | [F8D8] | [G4E4] z2 [B2G2] | ([e3G3] [dB]) [c3A3] [BG] | ([B4G4] [G2E2]) [B2G2] | ([A3F3] [GE]) [A2F2] [F2D2] | [E4E4] z2 |]
w: Home, Home,* sweet, sweet home, There's no* place like home,* There's no* place like home.
% - - - - - - - - - - - - - - - - - - - - - - - - - - - - -
